lib/flags/tf-french-southern-and-antarctic-lands.svg

<svg xmlns="http://www.w3.org/2000/svg" fill="none" aria-hidden="true" viewBox="0 0 42 30"><g id="Country=TF - French Southern and Antarctic Lands, Size=sm (36x24)" filter="url(#filter0_dd_91_24797)"><g clip-path="url(#clip0_91_24797)"><g id="flag"><mask id="mask0_91_24797" width="36" height="24" x="3" y="2" maskUnits="userSpaceOnUse" style="mask-type:alpha"><rect id="mask" width="36" height="24" x="3" y="2" fill="white"/></mask><g mask="url(#mask0_91_24797)"><g id="contents"><path id="background" fill="#2E42A5" fill-rule="evenodd" d="M3 2V26H39V2H3Z" clip-rule="evenodd"/><mask id="mask1_91_24797" width="36" height="24" x="3" y="2" maskUnits="userSpaceOnUse" style="mask-type:alpha"><path id="background_2" fill="white" fill-rule="evenodd" d="M3 2V26H39V2H3Z" clip-rule="evenodd"/></mask><g mask="url(#mask1_91_24797)"><g id="mark 2"><path id="Combined Shape" fill="#F7FCFF" fill-rule="evenodd" d="M24.1374 8.2002H28.6468H28.6824H33.1918L32.3096 9.70422H29.5627V10.5121H31.6686L30.8108 11.9113H29.5627V14.7096L31.6183 11.8303L34.2786 15.9249H33.1918L32.8122 15.4766H30.4043L28.7111 18.2576L28.7116 18.4111L28.6646 18.334L28.6176 18.4111L28.6181 18.2576L26.9249 15.4766H24.517L24.1374 15.9249H23.0506L25.7109 11.8303L27.7665 14.7096V9.70422H25.0196L24.1374 8.2002ZM31.6713 13.5097L31.0805 14.3174H32.199L31.6713 13.5097ZM25.6579 13.5097L26.2487 14.3174H25.1302L25.6579 13.5097ZM21.3527 12.6134L22.2876 12.0007L23.2226 12.6134L22.8927 11.5867L23.8004 10.9387L22.6616 10.9168L22.2876 9.90363L21.9137 10.9168L20.7749 10.9387L21.6825 11.5867L21.3527 12.6134ZM35.0123 12.0007L34.0774 12.6134L34.4072 11.5867L33.4996 10.9387L34.6383 10.9168L35.0123 9.90363L35.3862 10.9168L36.525 10.9387L35.6174 11.5867L35.9472 12.6134L35.0123 12.0007ZM31.2143 19.8035L32.1492 19.1909L33.0842 19.8035L32.7543 18.7768L33.662 18.1288L32.5232 18.1069L32.1492 17.0938L31.7753 18.1069L30.6365 18.1288L31.5442 18.7768L31.2143 19.8035ZM25.1507 19.1909L24.2158 19.8035L24.5456 18.7768L23.638 18.1288L24.7767 18.1069L25.1507 17.0938L25.5246 18.1069L26.6634 18.1288L25.7558 18.7768L26.0856 19.8035L25.1507 19.1909ZM27.715 22.2002L28.65 21.5875L29.5849 22.2002L29.255 21.1735L30.1627 20.5255L29.0239 20.5036L28.65 19.4904L28.276 20.5036L27.1372 20.5255L28.0449 21.1735L27.715 22.2002Z" clip-rule="evenodd"/></g><g id="mark 1"><rect id="mask_2" width="14.5" height="11" x="2.5" y="1.5" fill="#2E42A5" stroke="white"/><mask id="mask2_91_24797" width="16" height="12" x="2" y="1" maskUnits="userSpaceOnUse" style="mask-type:alpha"><rect id="mask_3" width="14.5" height="11" x="2.5" y="1.5" fill="white" stroke="white"/></mask><g mask="url(#mask2_91_24797)"><path id="bottom" fill="#F50100" fill-rule="evenodd" d="M12 2H16.5V12H12V2Z" clip-rule="evenodd"/><path id="left" fill="#2E42A5" fill-rule="evenodd" d="M3 2H7.5V12H3V2Z" clip-rule="evenodd"/><path id="middle" fill="#F7FCFF" fill-rule="evenodd" d="M7.5 2H12V12H7.5V2Z" clip-rule="evenodd"/></g></g></g></g></g></g></g></g><defs><filter id="filter0_dd_91_24797" width="42" height="30" x="0" y="0" color-interpolation-filters="sRGB" filterUnits="userSpaceOnUse"><feFlood flood-opacity="0" result="BackgroundImageFix"/><feColorMatrix in="SourceAlpha" result="hardAlpha" values="0 0 0 0 0 0 0 0 0 0 0 0 0 0 0 0 0 0 127 0"/><feOffset dy="1"/><feGaussianBlur stdDeviation="1"/><feColorMatrix values="0 0 0 0 0.0627451 0 0 0 0 0.0941176 0 0 0 0 0.156863 0 0 0 0.06 0"/><feBlend in2="BackgroundImageFix" result="effect1_dropShadow_91_24797"/><feColorMatrix in="SourceAlpha" result="hardAlpha" values="0 0 0 0 0 0 0 0 0 0 0 0 0 0 0 0 0 0 127 0"/><feOffset dy="1"/><feGaussianBlur stdDeviation="1.5"/><feColorMatrix values="0 0 0 0 0.0627451 0 0 0 0 0.0941176 0 0 0 0 0.156863 0 0 0 0.1 0"/><feBlend in2="effect1_dropShadow_91_24797" result="effect2_dropShadow_91_24797"/><feBlend in="SourceGraphic" in2="effect2_dropShadow_91_24797" result="shape"/></filter><clipPath id="clip0_91_24797"><rect width="36" height="24" x="3" y="2" fill="white" rx="2"/></clipPath></defs></svg>

<svg xmlns="http://www.w3.org/2000/svg" fill="none" aria-hidden="true" viewBox="0 0 42 30"><g filter="url(#a)"><g clip-path="url(#b)"><mask id="c" width="36" height="24" x="3" y="2" maskUnits="userSpaceOnUse" style="mask-type:alpha"><path fill="#fff" d="M3 2h36v24H3z"/></mask><g mask="url(#c)"><path fill="#2E42A5" fill-rule="evenodd" d="M3 2v24h36V2H3Z" clip-rule="evenodd"/><mask id="d" width="36" height="24" x="3" y="2" maskUnits="userSpaceOnUse" style="mask-type:alpha"><path fill="#fff" fill-rule="evenodd" d="M3 2v24h36V2H3Z" clip-rule="evenodd"/></mask><g mask="url(#d)"><path fill="#F7FCFF" fill-rule="evenodd" d="M24.137 8.2h9.055l-.882 1.504h-2.747v.808h2.106l-.858 1.4h-1.248v2.798l2.055-2.88 2.66 4.095h-1.086l-.38-.448h-2.408l-1.693 2.78v.154l-.046-.077-.047.077v-.153l-1.693-2.781h-2.408l-.38.448h-1.086l2.66-4.095 2.056 2.88V9.704H25.02L24.137 8.2Zm7.534 5.31-.59.807h1.118l-.528-.807Zm-6.013 0 .59.807H25.13l.528-.807Zm-4.305-.897.935-.612.935.612-.33-1.026.907-.648-1.138-.022-.374-1.013-.374 1.013-1.14.022.909.648-.33 1.026Zm13.66-.612-.936.612.33-1.026-.907-.648 1.138-.022.374-1.013.374 1.013 1.139.022-.908.648.33 1.026-.935-.612Zm-3.799 7.803.935-.613.935.613-.33-1.027.908-.648-1.139-.022-.374-1.013-.374 1.013-1.138.022.907.648-.33 1.026Zm-6.063-.613-.935.613.33-1.027-.908-.648 1.139-.022.374-1.013.374 1.013 1.138.022-.907.648.33 1.026-.935-.612Zm2.564 3.01.935-.614.935.613-.33-1.026.908-.648-1.14-.022-.373-1.014-.374 1.014-1.139.021.908.649-.33 1.026Z" clip-rule="evenodd"/><path fill="#2E42A5" stroke="#fff" d="M2.5 1.5H17v11H2.5z"/><mask id="e" width="16" height="12" x="2" y="1" maskUnits="userSpaceOnUse" style="mask-type:alpha"><path fill="#fff" stroke="#fff" d="M2.5 1.5H17v11H2.5z"/></mask><g fill-rule="evenodd" clip-rule="evenodd" mask="url(#e)"><path fill="#F50100" d="M12 2h4.5v10H12V2Z"/><path fill="#2E42A5" d="M3 2h4.5v10H3V2Z"/><path fill="#F7FCFF" d="M7.5 2H12v10H7.5V2Z"/></g></g></g></g></g><defs><clipPath id="b"><rect width="36" height="24" x="3" y="2" fill="#fff" rx="2"/></clipPath><filter id="a" width="42" height="30" x="0" y="0" color-interpolation-filters="sRGB" filterUnits="userSpaceOnUse"><feFlood flood-opacity="0" result="BackgroundImageFix"/><feColorMatrix in="SourceAlpha" result="hardAlpha" values="0 0 0 0 0 0 0 0 0 0 0 0 0 0 0 0 0 0 127 0"/><feOffset dy="1"/><feGaussianBlur stdDeviation="1"/><feColorMatrix values="0 0 0 0 0.0627451 0 0 0 0 0.0941176 0 0 0 0 0.156863 0 0 0 0.06 0"/><feBlend in2="BackgroundImageFix" result="effect1_dropShadow_91_24797"/><feColorMatrix in="SourceAlpha" result="hardAlpha" values="0 0 0 0 0 0 0 0 0 0 0 0 0 0 0 0 0 0 127 0"/><feOffset dy="1"/><feGaussianBlur stdDeviation="1.5"/><feColorMatrix values="0 0 0 0 0.0627451 0 0 0 0 0.0941176 0 0 0 0 0.156863 0 0 0 0.1 0"/><feBlend in2="effect1_dropShadow_91_24797" result="effect2_dropShadow_91_24797"/><feBlend in="SourceGraphic" in2="effect2_dropShadow_91_24797" result="shape"/></filter></defs></svg>
